static/assets/images/tokens/meveth.svg

<svg width="256" height="256" viewBox="0 0 256 256" fill="none" xmlns="http://www.w3.org/2000/svg">
<path fill-rule="evenodd" clip-rule="evenodd" d="M256 128C256 198.692 198.692 256 128 256C57.3075 256 0 198.692 0 128C0 57.3075 57.3075 0 128 0C198.692 0 256 57.3075 256 128Z" fill="white"/>
<path fill-rule="evenodd" clip-rule="evenodd" d="M63.6953 127.519C63.3466 128.064 63.4764 128.787 63.9932 129.176L127.256 176.84C127.697 177.172 128.303 177.172 128.744 176.84L192.007 129.176C192.524 128.787 192.653 128.064 192.305 127.519L129.041 28.5706C128.555 27.8098 127.445 27.8098 126.959 28.5706L63.6953 127.519ZM123.672 51.973V162.231C123.672 162.741 123.09 163.032 122.683 162.726L110.563 153.624C110.252 153.39 110.069 153.023 110.069 152.634V108.672L96.0207 134.463C95.6254 135.189 94.6444 135.33 94.0607 134.746L86.5728 127.248V134.623C86.5728 135.143 85.9716 135.431 85.567 135.106L78.3779 129.313C78.0862 129.078 77.9165 128.723 77.9165 128.349V122.042C77.9165 121.803 77.9858 121.568 78.1162 121.367L85.0879 110.627C85.5273 109.95 86.4864 109.868 87.0334 110.462L93.3744 117.341L100.794 85.7632L122.532 51.6402C122.865 51.1182 123.672 51.3541 123.672 51.973ZM132.328 162.36V51.9976C132.328 51.3765 133.139 51.1422 133.47 51.6678L154.282 84.7856C154.628 85.336 154.49 86.0609 153.966 86.4447L145.931 92.3277V108.053L160.639 97.0794C161.212 96.6517 162.027 96.7985 162.416 97.3997L167.865 105.833C168.221 106.384 168.086 107.118 167.556 107.505L145.931 123.328V137.464L173.618 117.192C174.195 116.77 175.007 116.923 175.391 117.527L180.562 125.665C180.909 126.209 180.779 126.928 180.265 127.317L133.319 162.854C132.912 163.163 132.328 162.872 132.328 162.36ZM65.5226 148.562C65.104 147.987 65.826 147.275 66.394 147.702L128 194.118L189.606 147.702C190.174 147.275 190.896 147.987 190.477 148.562L128.999 232.991C128.505 233.67 127.495 233.67 127.001 232.991L65.5226 148.562Z" fill="black"/>
</svg>

<svg xmlns="http://www.w3.org/2000/svg" fill="none" viewBox="0 0 256 256"><path fill="#fff" fill-rule="evenodd" d="M256 128c0 70.692-57.308 128-128 128S0 198.692 0 128 57.308 0 128 0s128 57.308 128 128" clip-rule="evenodd"/><path fill="#000" fill-rule="evenodd" d="M63.695 127.519a1.24 1.24 0 0 0 .298 1.657l63.263 47.664a1.236 1.236 0 0 0 1.488 0l63.263-47.664a1.24 1.24 0 0 0 .298-1.657l-63.264-98.948a1.235 1.235 0 0 0-2.082 0zm59.977-75.546v110.258c0 .51-.582.801-.989.495l-12.12-9.102a1.24 1.24 0 0 1-.494-.99v-43.962l-14.048 25.791a1.236 1.236 0 0 1-1.96.283l-7.488-7.498v7.375c0 .52-.601.808-1.006.483l-7.19-5.793a1.24 1.24 0 0 1-.46-.964v-6.307c0-.239.069-.474.2-.675l6.97-10.74a1.235 1.235 0 0 1 1.946-.165l6.341 6.879 7.42-31.578 21.738-34.123c.333-.522 1.14-.286 1.14.333m8.656 110.387V51.998c0-.621.811-.856 1.142-.33l20.812 33.118a1.24 1.24 0 0 1-.316 1.659l-8.035 5.883v15.725l14.708-10.974a1.236 1.236 0 0 1 1.777.32l5.449 8.434a1.24 1.24 0 0 1-.309 1.672l-21.625 15.823v14.136l27.687-20.272a1.235 1.235 0 0 1 1.773.335l5.171 8.138a1.237 1.237 0 0 1-.297 1.652l-46.946 35.537a.618.618 0 0 1-.991-.494m-66.805-13.798c-.419-.575.303-1.287.871-.86L128 194.118l61.606-46.416c.568-.427 1.29.285.871.86l-61.478 84.429a1.234 1.234 0 0 1-1.998 0z" clip-rule="evenodd"/></svg>
